Numix/32x32/categories/applications-roleplaying.svg

<?xml version="1.0" encoding="UTF-8" standalone="no"?>
<svg
   xmlns:dc="http://purl.org/dc/elements/1.1/"
   xmlns:cc="http://creativecommons.org/ns#"
   xmlns:rdf="http://www.w3.org/1999/02/22-rdf-syntax-ns#"
   xmlns:svg="http://www.w3.org/2000/svg"
   xmlns="http://www.w3.org/2000/svg"
   xmlns:sodipodi="http://sodipodi.sourceforge.net/DTD/sodipodi-0.dtd"
   xmlns:inkscape="http://www.inkscape.org/namespaces/inkscape"
   width="32"
   height="32"
   viewBox="0 0 32 32"
   id="svg2"
   version="1.1"
   inkscape:version="0.91 r"
   sodipodi:docname="applications-roleplaying.svg">
  <metadata
     id="metadata24">
    <rdf:RDF>
      <cc:Work
         rdf:about="">
        <dc:format>image/svg+xml</dc:format>
        <dc:type
           rdf:resource="http://purl.org/dc/dcmitype/StillImage" />
      </cc:Work>
    </rdf:RDF>
  </metadata>
  <defs
     id="defs22" />
  <sodipodi:namedview
     pagecolor="#ffffff"
     bordercolor="#666666"
     borderopacity="1"
     objecttolerance="10"
     gridtolerance="10"
     guidetolerance="10"
     inkscape:pageopacity="0"
     inkscape:pageshadow="2"
     inkscape:window-width="961"
     inkscape:window-height="480"
     id="namedview20"
     showgrid="false"
     inkscape:zoom="7.375"
     inkscape:cx="16"
     inkscape:cy="16"
     inkscape:window-x="10"
     inkscape:window-y="34"
     inkscape:window-maximized="0"
     inkscape:current-layer="svg2" />
  <g
     style="fill:#549ca4;stroke:#549ca4;stroke-width:4.54500008"
     id="g4"
     transform="translate(0.16796876,0.16601566)">
    <path
       d="m 69.15673,106.22979 c 1.642078,7.54724 2.557852,13.23136 1.19998,20.81018 -10.262985,8.36828 -36.599384,12.12611 -36.536227,20.77859 l -3.568361,25.95746 c 0,8.62091 24.568007,15.59974 54.820129,15.59974 30.283699,0 54.788549,-6.97883 54.788549,-15.59974 l -3.5052,-25.95746 c -0.0632,-7.42093 -26.52587,-12.12611 -36.694121,-20.77859 -0.884195,-7.01041 -0.18947,-13.79977 1.326291,-20.81018 z"
       transform="scale(0.1237,0.1237)"
       id="path6"
       inkscape:connector-curvature="0" />
    <path
       d="m 84.819624,57.567451 c -12.568209,0 -22.736459,9.789309 -22.736459,21.820686 0.09474,4.484135 0.473676,9.789308 3.063106,21.883843 1.484186,4.6736 14.999748,18.09443 15.126061,19.64177 2.936793,1.54735 7.57882,1.54735 10.610348,0 0,-1.54734 12.12611,-14.96817 13.64188,-19.64177 2.87363,-12.568211 2.87363,-17.178659 3.03152,-21.883843 0,-12.031377 -10.199825,-21.820686 -22.736456,-21.820686 z"
       transform="scale(0.1237,0.1237)"
       id="path8"
       inkscape:connector-curvature="0" />
    <g
       style="stroke-linejoin:round"
       id="g10">
      <path
         d="M 132.72408,71.177749 C 125.0821,66.630457 112.64021,34.957306 114.56649,48.441289 l 4.54729,31.831043 z"
         transform="scale(0.1237,0.1237)"
         id="path12"
         inkscape:connector-curvature="0" />
      <path
         d="m 178.00753,71.177749 c 7.67355,-4.547292 20.08387,-36.220443 18.18917,-22.73646 l -4.57888,31.831043 z"
         transform="scale(0.1237,0.1237)"
         id="path14"
         inkscape:connector-curvature="0" />
    </g>
    <path
       d="m 134.80826,107.55608 c 2.11575,9.88405 3.28415,17.36813 1.54734,27.25218 -13.19978,10.98928 -47.051841,15.91552 -46.988684,27.28375 l -4.547292,34.10469 c 0,11.27349 31.546836,20.43123 70.451446,20.43123 38.90461,0 70.45144,-9.15774 70.45144,-20.43123 l -4.54729,-34.10469 c -0.0316,-9.72616 -34.10469,-15.91552 -47.14657,-27.28375 -1.13683,-9.18932 -0.25263,-18.06286 1.70523,-27.25218 z"
       transform="scale(0.1237,0.1237)"
       id="path16"
       inkscape:connector-curvature="0" />
    <path
       d="m 155.27107,39.378284 c -18.82074,0 -34.07311,14.241866 -34.07311,31.799465 0.15789,6.505153 0.69472,14.241865 4.54729,31.831041 2.24207,6.82094 22.51541,24.97853 22.70488,27.25217 4.42098,2.30523 11.36823,2.30523 15.91552,0 0,-2.27364 18.18917,-20.43123 20.46282,-27.25217 4.29466,-18.283901 4.29466,-25.010104 4.54729,-31.831041 0,-17.557599 -15.28396,-31.799465 -34.10469,-31.799465 z"
       transform="scale(0.1237,0.1237)"
       id="path18"
       inkscape:connector-curvature="0" />
  </g>
</svg>

<svg width="32" xmlns="http://www.w3.org/2000/svg" height="32" viewBox="0 0 32 32" xmlns:xlink="http://www.w3.org/1999/xlink">
<g style="stroke:#549ca4;stroke-width:4.545;fill:#549ca4">
<path d="M 69.15673 106.22979 C 70.798808 113.777031 71.714582 119.461146 70.35671 127.039966 C 60.093725 135.408246 33.757326 139.166077 33.820483 147.818563 L 30.252122 173.776021 C 30.252122 182.396928 54.820129 189.375758 85.072251 189.375758 C 115.355952 189.375758 139.860802 182.396928 139.860802 173.776021 L 136.355598 147.818563 C 136.292441 140.397635 109.829729 135.692451 99.661479 127.039966 C 98.777284 120.029557 99.472009 113.240198 100.987773 106.22979 Z " transform="scale(.1237)"/>
<path d="M 84.819624 57.567451 C 72.251415 57.567451 62.083165 67.35676 62.083165 79.388137 C 62.1779 83.872272 62.556841 89.177445 65.146271 101.271979 C 66.630457 105.945584 80.146019 119.366411 80.272332 120.913753 C 83.209125 122.461095 87.851152 122.461095 90.88268 120.913753 C 90.88268 119.366411 103.008791 105.945584 104.524555 101.271979 C 107.398191 88.703769 107.398191 84.093321 107.556083 79.388137 C 107.556083 67.35676 97.356255 57.567451 84.819624 57.567451 Z " transform="scale(.1237)"/>
<g style="stroke-linejoin:round">
<path d="M 132.72408 71.177749 C 125.082104 66.630457 112.640208 34.957306 114.566492 48.441289 L 119.113783 80.272332 Z " transform="scale(.1237)"/>
<path d="M 178.007528 71.177749 C 185.681083 66.630457 198.091401 34.957306 196.196696 48.441289 L 191.617825 80.272332 Z " transform="scale(.1237)"/>
</g>
<path d="M 134.808256 107.556083 C 136.92401 117.440127 138.092411 124.924212 136.355598 134.808256 C 123.155821 145.797544 89.303759 150.723777 89.366916 162.092007 L 84.819624 196.196696 C 84.819624 207.47019 116.366461 216.62793 155.271069 216.62793 C 194.175677 216.62793 225.722514 207.47019 225.722514 196.196696 L 221.175222 162.092007 C 221.143644 152.365855 187.070534 146.176485 174.028648 134.808256 C 172.891825 125.618937 173.776021 116.745402 175.733882 107.556083 Z " transform="scale(.1237)"/>
<path d="M 155.271069 39.378284 C 136.450333 39.378284 121.197959 53.62015 121.197959 71.177749 C 121.355851 77.682902 121.892684 85.419614 125.745251 103.008791 C 127.987318 109.829729 148.260661 127.987318 148.450131 130.260964 C 152.87111 132.566188 159.818361 132.566188 164.365653 130.260964 C 164.365653 127.987318 182.55482 109.829729 184.828466 103.008791 C 189.123131 84.724889 189.123131 77.998686 189.375758 71.177749 C 189.375758 53.62015 174.091805 39.378284 155.271069 39.378284 Z " transform="scale(.1237)"/>
</g>
</svg>
